X:571
T: ES REGNET AUF DER BRUECKE
N: E1877
O: Europa, Mitteleuropa, Deutschland, Sachsen
R: Kinder - Lied, Tanz, Ringelreihen
M: 2/4
L: 1/8
K: F
C | FGAB | c2c
c | d2f2 | c2z
c | cBBB | Acf
A | c2c2 | F2z2 |
FGAB | ccc
c | ddfd | dccz |
cBBB | Acf2 |
ecde | f2F

@@@ Tune index: 5255
